img/icon-community.svg

<?xml version="1.0" encoding="UTF-8" standalone="no"?>
<svg width="31px" height="33px" viewBox="0 0 31 33" version="1.1" xmlns="http://www.w3.org/2000/svg" xmlns:xlink="http://www.w3.org/1999/xlink" xmlns:sketch="http://www.bohemiancoding.com/sketch/ns">
    <!-- Generator: Sketch 3.4 (15575) - http://www.bohemiancoding.com/sketch -->
    <title>icon-community</title>
    <desc>Created with Sketch.</desc>
    <defs></defs>
    <g id="Page-1" stroke="none" stroke-width="1" fill="none" fill-rule="evenodd" sketch:type="MSPage">
        <g id="instansearch-website" sketch:type="MSArtboardGroup" transform="translate(-267.000000, -276.000000)">
            <g id="icon-community" sketch:type="MSLayerGroup" transform="translate(251.387237, 260.664529)">
                <rect id="Rectangle-1" sketch:type="MSShapeGroup" x="0" y="0" width="64" height="64"></rect>
                <g id="Icons/Search-Copy-+-Icons/Search-Copy-2" transform="translate(16.000000, 16.000000)" fill="#FFFFFF" sketch:type="MSShapeGroup">
                    <path d="M30.1261436,32 C29.8021322,28.5459722 28.3381395,25.1812702 25.7341654,22.53445 C19.7861022,16.4885167 10.1529922,16.4885167 4.20492898,22.53445 C2.03365656,24.7414488 0.55046343,27.5856796 0,30.6630441 L1.60649212e-15,32 L2.88775009,32 C3.24441624,29.3237108 4.4071206,26.7429885 6.37586317,24.6897806 C11.1845028,19.674835 19.0107099,19.674835 23.8193496,24.6897806 C25.7880921,26.7429885 26.9507965,29.3237108 27.3074627,32 L30.1261436,32 Z" id="Icons/Search-Copy"></path>
                    <path d="M19.2629491,20.2992611 C13.8477823,22.3777499 7.77949382,19.6762324 5.70080603,14.2615839 C3.62211823,8.84693538 6.32389433,2.77922777 11.7390612,0.700738947 C17.154228,-1.37774988 23.2225165,1.3237676 25.3012043,6.73841611 C26.0600055,8.71497161 26.2095276,10.8934441 25.7071573,12.9548104 L24.1547082,16.4413344 C22.9588192,18.1939558 21.2396938,19.5405325 19.2629491,20.2992611 Z M18.221058,17.4123825 C21.999272,15.9494505 23.8936307,11.657653 22.4433102,7.84658498 C20.9929897,4.03551697 16.7381905,2.1246856 12.9599765,3.58761754 C9.18176251,5.05054948 7.28740382,9.34234701 8.73772429,13.153415 C10.1880447,16.964483 14.442844,18.8753144 18.221058,17.4123825 L18.221058,17.4123825 Z" id="Icons/Search-Copy-2"></path>
                </g>
            </g>
        </g>
    </g>
</svg>

<svg width="31" height="32" viewBox="0 0 31 32" xmlns="http://www.w3.org/2000/svg"><title>icon-community</title><desc>Created with Sketch.</desc><g fill="none" fill-rule="evenodd"><path d="M-16-16h64v64h-64z"/><path d="M30.126 32c-.324-3.454-1.788-6.82-4.392-9.466-5.948-6.045-15.58-6.045-21.53 0C2.034 24.74.55 27.586 0 30.664V32h2.888c.356-2.676 1.52-5.257 3.488-7.31 4.81-5.015 12.635-5.015 17.443 0 1.966 2.053 3.13 4.634 3.485 7.31h2.82zM19.263 20.3C13.848 22.377 7.78 19.675 5.7 14.26 3.623 8.847 6.325 2.78 11.74.702c5.414-2.08 11.483.622 13.56 6.036.76 1.977.91 4.155.407 6.217l-1.552 3.486c-1.196 1.756-2.915 3.1-4.892 3.86zm-1.043-2.89c3.78-1.463 5.674-5.754 4.223-9.565-1.45-3.81-5.705-5.722-9.483-4.26C9.182 5.05 7.287 9.34 8.738 13.15c1.45 3.81 5.705 5.723 9.483 4.26z" fill="#fff"/></g></svg>
